src/lib/packages/icons/src/assets/line/arrow-export.svg

<svg xmlns="http://www.w3.org/2000/svg" width="24" height="24" fill="none"><path fill="currentColor" d="M20.75 4v5a.75.75 0 0 1-1.5 0V5.811l-7.72 7.72a.748.748 0 0 1-1.06 0 .75.75 0 0 1 0-1.061l7.72-7.72H15a.75.75 0 0 1 0-1.5h5a.751.751 0 0 1 .75.75ZM20 12.25a.75.75 0 0 0-.75.75v4c0 1.577-.673 2.25-2.25 2.25H7c-1.577 0-2.25-.673-2.25-2.25V7c0-1.577.673-2.25 2.25-2.25h4a.75.75 0 0 0 0-1.5H7C4.582 3.25 3.25 4.582 3.25 7v10c0 2.418 1.332 3.75 3.75 3.75h10c2.418 0 3.75-1.332 3.75-3.75v-4a.75.75 0 0 0-.75-.75Z"/></svg>

<svg width="24" height="24" viewBox="0 0 24 24" fill="none" xmlns="http://www.w3.org/2000/svg">
<path d="M20.75 4V9C20.75 9.414 20.414 9.75 20 9.75C19.586 9.75 19.25 9.414 19.25 9V5.81104L11.53 13.531C11.384 13.677 11.192 13.751 11 13.751C10.808 13.751 10.616 13.678 10.47 13.531C10.177 13.238 10.177 12.763 10.47 12.47L18.1899 4.75H15C14.586 4.75 14.25 4.414 14.25 4C14.25 3.586 14.586 3.25 15 3.25H20C20.098 3.25 20.1951 3.27011 20.2871 3.30811C20.4701 3.38411 20.6161 3.53011 20.6931 3.71411C20.7301 3.80511 20.75 3.902 20.75 4ZM20 12.25C19.586 12.25 19.25 12.586 19.25 13V17C19.25 18.577 18.577 19.25 17 19.25H7C5.423 19.25 4.75 18.577 4.75 17V7C4.75 5.423 5.423 4.75 7 4.75H11C11.414 4.75 11.75 4.414 11.75 4C11.75 3.586 11.414 3.25 11 3.25H7C4.582 3.25 3.25 4.582 3.25 7V17C3.25 19.418 4.582 20.75 7 20.75H17C19.418 20.75 20.75 19.418 20.75 17V13C20.75 12.586 20.414 12.25 20 12.25Z" fill="currentColor"/>
</svg>
